dist/img/svg/paints_icon.svg

<svg version="1.2" baseProfile="tiny-ps" xmlns="http://www.w3.org/2000/svg" width="1524" height="1524"><style>.shp0{fill:#000}</style><g id="Capa 1"><g id="&lt;Group&gt;"><path id="&lt;Compound Path&gt;" fill-rule="evenodd" class="shp0" d="M1135.12 937.41c-26.68 0-53.1 11.34-72.48 31.11-23.86 24.35-41.61 67.18-19.85 114.4 23.24 50.43 32.39 106.71 26.45 162.75-16.5 156.02-157.49 278.24-320.96 278.24-3.33 0-6.68-.05-10.02-.15-197.73-6.09-383.19-88.24-522.21-231.32C76.73 1149.05 0 960.7 0 762.11c0-99.5 19.93-197.14 59.24-290.21 38.24-90.54 92.83-172.29 162.26-242.96C366.49 81.36 558.45.09 762.01.09c415.7 0 757.52 338.12 761.98 753.72.55 51.68-16.57 102.67-48.22 143.57-32.05 41.41-77 69.61-126.56 79.38-14.71 2.9-29.63 4.37-44.34 4.37-53.62 0-94.25-18.97-118.53-30.31-3.64-1.7-6.89-3.21-9.72-4.45-13.63-5.95-27.59-8.96-41.5-8.96zm.04-77.83c24.96 0 49.4 5.15 72.66 15.3 3.26 1.42 6.79 3.09 10.6 4.89 20.89 9.86 49.52 23.36 86.32 23.36 9.74 0 19.63-.98 29.38-2.9 64.53-12.72 112.62-75.3 111.87-145.58-4-373.06-310.83-676.56-683.98-676.56C391.24 78.09 78 391.33 78 762.11c0 365.73 297.27 672.43 662.65 683.68 2.55.08 5.09.12 7.63.12 59.46-.01 117.36-21.48 163.04-60.48 45.86-39.14 74.4-91.69 80.36-147.97 4.45-42.07-2.37-84.22-19.73-121.9-31.6-68.57-17.87-147.72 34.98-201.64 34.34-35.04 79.88-54.34 128.23-54.34z"/><path id="&lt;Compound Path&gt;" fill-rule="evenodd" class="shp0" d="M1251.03 492.1c0 74.75-54.26 129-129.01 129-71.13 0-129-57.87-129-129s57.87-129 129-129c71.14 0 129.01 57.87 129.01 129zm-78.01 0c0-28.12-22.87-51-51-51-28.12 0-51 22.88-51 51s22.88 51 51 51c46.03 0 51-35.67 51-51zm-282-180c0 71.13-57.87 129-129.01 129-71.13 0-129-57.87-129-129 0-71.14 57.87-129.01 129-129.01 71.14 0 129.01 57.87 129.01 129.01zm-78 0c0-28.13-22.88-51-51.01-51-28.12 0-51 22.87-51 51 0 28.12 22.88 51 51 51 28.13 0 51.01-22.88 51.01-51zm-282.01 180c0 71.13-57.87 129-129 129s-129-57.87-129-129 57.87-129 129-129 129 57.87 129 129zm-78 0c0-28.12-22.88-51-51-51s-51 22.88-51 51 22.88 51 51 51 51-22.88 51-51zm78 405.01c0 95.95-78.06 174-174 174-95.95 0-174.01-78.05-174.01-174s78.06-174 174.01-174c95.94 0 174 78.05 174 174zm-78 0c0-52.94-43.07-96-96-96-52.94 0-96 43.06-96 96 0 52.93 43.06 96 96 96 52.93 0 96-43.07 96-96zm438.01 270.01c0 95.94-78.06 174-174.01 174-95.94 0-174-78.06-174-174 0-95.95 78.06-174.01 174-174.01 95.95 0 174.01 78.06 174.01 174.01zm-78 0c0-52.94-43.07-96.01-96.01-96.01-52.93 0-96 43.07-96 96.01 0 52.93 43.07 96 96 96 52.94 0 96.01-43.07 96.01-96z"/></g></g></svg>

<svg version="1.2" baseProfile="tiny-ps" xmlns="http://www.w3.org/2000/svg" viewBox="0 0 1524 1524" width="1524" height="1524">
	<title>Capa 1</title>
	<style>
		tspan { white-space:pre }
		.shp0 { fill: #000000 } 
	</style>
	<g id="Capa 1">
		<g id="&lt;Group&gt;">
			<path id="&lt;Compound Path&gt;" fill-rule="evenodd" class="shp0" d="M1135.12 937.41C1108.44 937.41 1082.02 948.75 1062.64 968.52C1038.78 992.87 1021.03 1035.7 1042.79 1082.92C1066.03 1133.35 1075.18 1189.63 1069.24 1245.67C1052.74 1401.69 911.75 1523.91 748.28 1523.91C744.95 1523.91 741.6 1523.86 738.26 1523.76C540.53 1517.67 355.07 1435.52 216.05 1292.44C76.73 1149.05 0 960.7 0 762.11C0 662.61 19.93 564.97 59.24 471.9C97.48 381.36 152.07 299.61 221.5 228.94C366.49 81.36 558.45 0.09 762.01 0.09C1177.71 0.09 1519.53 338.21 1523.99 753.81C1524.54 805.49 1507.42 856.48 1475.77 897.38C1443.72 938.79 1398.77 966.99 1349.21 976.76C1334.5 979.66 1319.58 981.13 1304.87 981.13C1304.87 981.13 1304.87 981.13 1304.87 981.13C1251.25 981.13 1210.62 962.16 1186.34 950.82C1182.7 949.12 1179.45 947.61 1176.62 946.37C1162.99 940.42 1149.03 937.41 1135.12 937.41ZM1135.16 859.58C1160.12 859.58 1184.56 864.73 1207.82 874.88C1211.08 876.3 1214.61 877.97 1218.42 879.77C1239.31 889.63 1267.94 903.13 1304.74 903.13C1314.48 903.13 1324.37 902.15 1334.12 900.23C1398.65 887.51 1446.74 824.93 1445.99 754.65C1441.99 381.59 1135.16 78.09 762.01 78.09C391.24 78.09 78 391.33 78 762.11C78 1127.84 375.27 1434.54 740.65 1445.79C743.2 1445.87 745.74 1445.91 748.28 1445.91C807.74 1445.9 865.64 1424.43 911.32 1385.43C957.18 1346.29 985.72 1293.74 991.68 1237.46C996.13 1195.39 989.31 1153.24 971.95 1115.56C940.35 1046.99 954.08 967.84 1006.93 913.92C1041.27 878.88 1086.81 859.58 1135.16 859.58Z" />
			<path id="&lt;Compound Path&gt;" fill-rule="evenodd" class="shp0" d="M1251.03 492.1C1251.03 566.85 1196.77 621.1 1122.02 621.1C1050.89 621.1 993.02 563.23 993.02 492.1C993.02 420.97 1050.89 363.1 1122.02 363.1C1193.16 363.1 1251.03 420.97 1251.03 492.1ZM1173.02 492.1C1173.02 463.98 1150.15 441.1 1122.02 441.1C1093.9 441.1 1071.02 463.98 1071.02 492.1C1071.02 520.22 1093.9 543.1 1122.02 543.1C1168.05 543.1 1173.02 507.43 1173.02 492.1Z" />
			<path id="&lt;Compound Path&gt;" fill-rule="evenodd" class="shp0" d="M891.02 312.1C891.02 383.23 833.15 441.1 762.01 441.1C690.88 441.1 633.01 383.23 633.01 312.1C633.01 240.96 690.88 183.09 762.01 183.09C833.15 183.09 891.02 240.96 891.02 312.1ZM813.02 312.1C813.02 283.97 790.14 261.1 762.01 261.1C733.89 261.1 711.01 283.97 711.01 312.1C711.01 340.22 733.89 363.1 762.01 363.1C790.14 363.1 813.02 340.22 813.02 312.1Z" />
			<path id="&lt;Compound Path&gt;" fill-rule="evenodd" class="shp0" d="M531.01 492.1C531.01 563.23 473.14 621.1 402.01 621.1C330.88 621.1 273.01 563.23 273.01 492.1C273.01 420.97 330.88 363.1 402.01 363.1C473.14 363.1 531.01 420.97 531.01 492.1ZM453.01 492.1C453.01 463.98 430.13 441.1 402.01 441.1C373.89 441.1 351.01 463.98 351.01 492.1C351.01 520.22 373.89 543.1 402.01 543.1C430.13 543.1 453.01 520.22 453.01 492.1Z" />
			<path id="&lt;Compound Path&gt;" fill-rule="evenodd" class="shp0" d="M531.01 897.11C531.01 993.06 452.95 1071.11 357.01 1071.11C261.06 1071.11 183 993.06 183 897.11C183 801.16 261.06 723.11 357.01 723.11C452.95 723.11 531.01 801.16 531.01 897.11ZM453.01 897.11C453.01 844.17 409.94 801.11 357.01 801.11C304.07 801.11 261.01 844.17 261.01 897.11C261.01 950.04 304.07 993.11 357.01 993.11C409.94 993.11 453.01 950.04 453.01 897.11Z" />
			<path id="&lt;Compound Path&gt;" fill-rule="evenodd" class="shp0" d="M891.02 1167.12C891.02 1263.06 812.96 1341.12 717.01 1341.12C621.07 1341.12 543.01 1263.06 543.01 1167.12C543.01 1071.17 621.07 993.11 717.01 993.11C812.96 993.11 891.02 1071.17 891.02 1167.12ZM813.02 1167.12C813.02 1114.18 769.95 1071.11 717.01 1071.11C664.08 1071.11 621.01 1114.18 621.01 1167.12C621.01 1220.05 664.08 1263.12 717.01 1263.12C769.95 1263.12 813.02 1220.05 813.02 1167.12Z" />
		</g>
	</g>
</svg>
